src/icons/swift.svg

<svg width="16" height="16" viewBox="0 0 16 16" fill="none" xmlns="http://www.w3.org/2000/svg">
<path d="M10.966 12.098C9.566 12.922 7.64 13.006 5.704 12.161C4.17084 11.4851 2.87915 10.3594 2 8.933C2.4 9.273 2.867 9.544 3.368 9.782C5.368 10.737 7.368 10.672 8.775 9.784L8.773 9.782C6.771 8.219 5.07 6.18 3.802 4.515C3.535 4.243 3.335 3.903 3.134 3.597C4.669 5.025 7.104 6.825 7.972 7.335C6.137 5.365 4.502 2.918 4.569 2.985C7.472 5.976 10.174 7.675 10.174 7.675C10.2627 7.72567 10.334 7.77 10.388 7.808C10.4468 7.65297 10.4979 7.49511 10.541 7.335C11.008 5.602 10.475 3.631 9.307 2C12.009 3.665 13.611 6.792 12.943 9.408C12.9257 9.478 12.907 9.54767 12.887 9.617L12.91 9.647C14.245 11.345 13.878 13.147 13.71 12.807C12.987 11.364 11.647 11.805 10.965 12.097" fill="#FC8289"/>
</svg>

<svg xmlns="http://www.w3.org/2000/svg" width="16" height="16" fill="none"><path fill="#FC8289" d="M10.966 12.098c-1.4.824-3.326.908-5.262.063A8.27 8.27 0 0 1 2 8.933c.4.34.867.611 1.368.849 2 .955 4 .89 5.407.002l-.002-.002C6.771 8.219 5.07 6.18 3.802 4.515c-.267-.272-.467-.612-.668-.918 1.535 1.428 3.97 3.228 4.838 3.738-1.835-1.97-3.47-4.417-3.403-4.35 2.903 2.991 5.605 4.69 5.605 4.69q.133.076.214.133a5 5 0 0 0 .153-.473c.467-1.733-.066-3.704-1.234-5.335 2.702 1.665 4.304 4.792 3.636 7.408q-.026.105-.056.209l.023.03c1.335 1.698.968 3.5.8 3.16-.723-1.443-2.063-1.002-2.745-.71"/></svg>
